X:22
T:Santiana (a)
M:C|
L:1/8
Q:1/4=3D90
K:Em
B2|\
E3F G2A2|B2AG A4|d4 B4|E6 F2|G4 A4|
A3F A3F|AGFE D2EF|G2E2 F2B2|B,2E2 E2||
